;FLAVOR:RepRap
;TIME:711
;Filament used: 0.153629m
;Layer height: 0.1
;Generated with Cura_SteamEngine 2.5.0
M190 S60
M104 S200
M109 S200
G28 ;Home
G1 Z15.0 F6000 ;Move the platform down 15mm
;Prime the extruder
G92 E0
G1 F200 E3
G92 E0
;LAYER_COUNT:58
;LAYER:0
M107

G0 F3600 Z0.4
G0 F3600 X60.000000 Y60.000000
G0 F3600 Z0.3
G4 P3000
G1 F1800 X100.000000 Y60.000000 E0.01314 ; Line 1, with angle 0.000000
G4 P3000
G0 F3600 Z0.4
G0 F3600 X60.000000 Y60.000000
G0 F3600 Z0.3
G4 P3000
G1 F1800 X88.284271 Y88.284271 E0.01314 ; Line 2, with angle 45.000000
G4 P3000
G0 F3600 Z0.4
G0 F3600 X60.000000 Y60.000000
G0 F3600 Z0.3
G4 P3000
G1 F1800 X60.000000 Y100.000000 E0.01314 ; Line 3, with angle 90.000000
G4 P3000
G0 F3600 Z0.4
G0 F3600 X60.000000 Y60.000000
G0 F3600 Z0.3
G4 P3000
G1 F1800 X31.715729 Y88.284271 E0.01314 ; Line 4, with angle 135.000000
G4 P3000
G0 F3600 Z0.4
G0 F3600 X60.000000 Y60.000000
G0 F3600 Z0.3
G4 P3000
G1 F1800 X20.000000 Y60.000000 E0.01314 ; Line 5, with angle 180.000000
G4 P3000
G0 F3600 Z0.4
G0 F3600 X60.000000 Y60.000000
G0 F3600 Z0.3
G4 P3000
G1 F1800 X31.715729 Y31.715729 E0.01314 ; Line 6, with angle 225.000000
G4 P3000
G0 F3600 Z0.4
G0 F3600 X60.000000 Y60.000000
G0 F3600 Z0.3
G4 P3000
G1 F1800 X60.000000 Y20.000000 E0.01314 ; Line 7, with angle 270.000000
G4 P3000
G0 F3600 Z0.4
G0 F3600 X60.000000 Y60.000000
G0 F3600 Z0.3
G4 P3000
G1 F1800 X88.284271 Y31.715729 E0.01314 ; Line 8, with angle 315.000000
G4 P3000

;Finish sequence
M107
M104 S0
M140 S0
;Retract the filament
G92 E1
G1 E-1 F300
G28 X0 Y0
M84
M104 S0
;End of Gcode
