;FLAVOR:RepRap
;TIME:711
;Filament used: 0.153629m
;Layer height: 0.1
;Generated with Cura_SteamEngine 2.5.0
M190 S60
M104 S200
M109 S200
G28 ;Home
G1 Z15.0 F6000 ;Move the platform down 15mm
;Prime the extruder
G92 E0
G1 F200 E3
G92 E0
;LAYER_COUNT:58
;LAYER:0
M107
G0 F3600 X54.45 Y40.501 Z0.3
;TYPE:SKIRT
G1 F1800 X54.883 Y39.953 E0.01314
G1 X55.403 Y39.359 E0.02799
G1 X55.981 Y38.821 E0.04284
G1 X56.61 Y38.344 E0.05769
G1 X57.188 Y37.95 E0.07085
G1 X57.862 Y37.539 E0.0857
G1 X58.574 Y37.198 E0.10055
G1 X58.981 Y37.041 E0.10875
G1 X59.476 Y36.866 E0.11863
G1 X60.233 Y36.641 E0.13349
G1 X61.215 Y36.468 E0.15224
G1 X61.737 Y36.41 E0.16212
G1 X62.525 Y36.362 E0.17697
G1 X63.476 Y36.412 E0.19489
G1 X63.997 Y36.471 E0.20475
G1 X64.776 Y36.599 E0.2196
G1 X65.706 Y36.862 E0.23778
G1 X66.201 Y37.036 E0.24765
G1 X66.931 Y37.336 E0.26249
G1 X67.628 Y37.707 E0.27735
G1 X68.005 Y37.948 E0.28576
G1 X68.582 Y38.341 E0.2989
G1 X69.211 Y38.818 E0.31374
G1 X69.789 Y39.357 E0.32861
G1 X70.307 Y39.947 E0.34338
G1 X70.74 Y40.494 E0.3565
G1 X71.198 Y41.137 E0.37135
G1 X71.653 Y41.954 E0.38894
G1 X71.805 Y42.27 E0.39554
G1 X72.227 Y43.344 E0.41724
G1 X74.64 Y51.136 E0.57068
G1 X74.775 Y51.427 E0.57672
G1 X74.885 Y51.596 E0.58051
G1 X80.658 Y57.895 E0.74123
G1 X81.162 Y58.503 E0.75609
G1 X81.601 Y59.16 E0.77095
G1 X82.027 Y59.977 E0.78829
G1 X82.383 Y60.772 E0.80467
G1 X82.669 Y61.508 E0.81952
G1 X82.879 Y62.27 E0.83439
G1 X83.008 Y63.024 E0.84878
G1 X83.071 Y63.545 E0.85865
G1 X83.126 Y64.332 E0.87349
G1 X83.087 Y65.269 E0.89113
G1 X83.034 Y65.791 E0.901
G1 X82.915 Y66.572 E0.91586
G1 X82.654 Y67.527 E0.93449
G1 X82.484 Y68.024 E0.94437
G1 X82.191 Y68.758 E0.95923
G1 X81.825 Y69.458 E0.97409
G1 X81.578 Y69.85 E0.98281
G1 X81.189 Y70.429 E0.99593
G1 X80.716 Y71.061 E1.01078
G1 X80.182 Y71.642 E1.02562
G1 X79.568 Y72.185 E1.04104
G1 X78.998 Y72.638 E1.05474
G1 X78.356 Y73.098 E1.06959
G1 X77.67 Y73.49 E1.08445
G1 X76.688 Y73.906 E1.10451
G1 X75.876 Y74.186 E1.12067
G1 X75.117 Y74.405 E1.13553
G1 X74.34 Y74.547 E1.15039
G1 X73.322 Y74.612 E1.16958
G1 X72.626 Y74.611 E1.18267
G1 X71.837 Y74.57 E1.19753
G1 X70.909 Y74.417 E1.21522
G1 X62.952 Y72.61 E1.36871
G1 X62.633 Y72.582 E1.37473
G1 X62.266 Y72.601 E1.38165
G1 X61.913 Y72.663 E1.38839
G1 X54.117 Y74.437 E1.53878
G1 X53.339 Y74.573 E1.55364
G1 X52.551 Y74.629 E1.5685
G1 X51.816 Y74.61 E1.58233
G1 X51.12 Y74.559 E1.59546
G1 X50.336 Y74.462 E1.61032
G1 X49.567 Y74.285 E1.62516
G1 X49.134 Y74.149 E1.6337
G1 X48.638 Y73.977 E1.64357
G1 X47.906 Y73.681 E1.65843
G1 X47.208 Y73.313 E1.67327
G1 X46.808 Y73.058 E1.68219
G1 X46.23 Y72.665 E1.69534
G1 X45.601 Y72.189 E1.71018
G1 X45.022 Y71.651 E1.72505
G1 X44.511 Y71.07 E1.7396
G1 X44.076 Y70.523 E1.75275
G1 X43.616 Y69.881 E1.7676
G1 X43.224 Y69.195 E1.78246
G1 X42.924 Y68.526 E1.79626
G1 X42.668 Y67.876 E1.8094
G1 X42.416 Y67.128 E1.82424
G1 X42.241 Y66.358 E1.8391
G1 X42.171 Y65.868 E1.84841
G1 X42.114 Y65.348 E1.85825
G1 X42.068 Y64.56 E1.8731
G1 X42.117 Y63.624 E1.89073
G1 X42.176 Y63.101 E1.90063
G1 X42.304 Y62.321 E1.9155
G1 X42.511 Y61.559 E1.93035
G1 X42.676 Y61.099 E1.93954
G1 X42.933 Y60.451 E1.95265
G1 X43.261 Y59.733 E1.9675
G1 X43.732 Y58.944 E1.98479
G1 X43.929 Y58.654 E1.99138
G1 X44.658 Y57.737 E2.01342
G1 X50.202 Y51.751 E2.16689
G1 X50.344 Y51.548 E2.17155
G1 X50.585 Y51.053 E2.18191
G1 X52.907 Y43.52 E2.33019
G1 X53.21 Y42.703 E2.34658
G1 X53.419 Y42.223 E2.35643
G1 X53.77 Y41.516 E2.37127
G1 X54.191 Y40.848 E2.38613
G1 X54.45 Y40.501 E2.39427
G0 F3600 X54.764 Y40.749
G1 F1800 X55.197 Y40.201 E2.40741
G1 X55.704 Y39.623 E2.42187
G1 X56.269 Y39.101 E2.43634
G1 X56.835 Y38.674 E2.44968
G1 X57.413 Y38.28 E2.46284
G1 X58.07 Y37.881 E2.4773
G1 X59.114 Y37.418 E2.49878
G1 X59.609 Y37.243 E2.50866
G1 X60.347 Y37.025 E2.52313
G1 X61.259 Y36.865 E2.54055
G1 X61.781 Y36.807 E2.55043
G1 X62.549 Y36.762 E2.5649
G1 X63.431 Y36.809 E2.58151
G1 X63.952 Y36.868 E2.59138
G1 X64.71 Y36.994 E2.60583
G1 X65.573 Y37.24 E2.62271
G1 X66.068 Y37.414 E2.63258
G1 X66.779 Y37.706 E2.64704
G1 X67.78 Y38.279 E2.66873
G1 X68.357 Y38.672 E2.68187
G1 X68.969 Y39.137 E2.69632
G1 X69.53 Y39.664 E2.7108
G1 X69.993 Y40.195 E2.72406
G1 X70.426 Y40.742 E2.73718
G1 X70.872 Y41.369 E2.75165
G1 X71.293 Y42.127 E2.76796
G1 X71.445 Y42.443 E2.77456
G1 X71.845 Y43.462 E2.79515
G1 X74.267 Y51.285 E2.9492
G1 X74.422 Y51.616 E2.95607
G1 X74.568 Y51.842 E2.96113
G1 X80.363 Y58.165 E3.12247
G1 X80.853 Y58.758 E3.13694
G1 X81.278 Y59.399 E3.1514
G1 X81.662 Y60.141 E3.16712
G1 X82.018 Y60.936 E3.18351
G1 X82.295 Y61.653 E3.19796
G1 X82.497 Y62.395 E3.21243
G1 X82.61 Y63.072 E3.22534
G1 X82.673 Y63.593 E3.23521
G1 X82.726 Y64.36 E3.24967
G1 X82.689 Y65.228 E3.26602
G1 X82.636 Y65.75 E3.27589
G1 X82.519 Y66.511 E3.29037
G1 X82.276 Y67.398 E3.30767
G1 X82.106 Y67.895 E3.31755
G1 X81.819 Y68.609 E3.33203
G1 X81.46 Y69.289 E3.34649
G1 X81.246 Y69.627 E3.35401
G1 X80.857 Y70.206 E3.36714
G1 X80.396 Y70.821 E3.38159
G1 X79.873 Y71.385 E3.39606
G1 X79.319 Y71.872 E3.40994
G1 X78.749 Y72.325 E3.42363
G1 X78.123 Y72.772 E3.4381
G1 X77.454 Y73.151 E3.45257
G1 X76.557 Y73.528 E3.47087
G1 X75.745 Y73.808 E3.48703
G1 X75.006 Y74.02 E3.50149
G1 X74.249 Y74.155 E3.51595
G1 X73.322 Y74.212 E3.53342
G1 X72.626 Y74.211 E3.54651
G1 X71.858 Y74.17 E3.56098
G1 X70.998 Y74.027 E3.57738
G1 X63.018 Y72.214 E3.73131
G1 X62.64 Y72.181 E3.73845
G1 X62.217 Y72.203 E3.74642
G1 X61.833 Y72.271 E3.75375
G1 X54.028 Y74.047 E3.90432
G1 X53.27 Y74.178 E3.91879
G1 X52.503 Y74.23 E3.93325
G1 X51.845 Y74.211 E3.94564
G1 X51.149 Y74.16 E3.95876
G1 X50.386 Y74.064 E3.97323
G1 X49.637 Y73.89 E3.98769
G1 X49.266 Y73.772 E3.99502
G1 X48.77 Y73.6 E4.00489
G1 X48.057 Y73.31 E4.01937
G1 X47.378 Y72.948 E4.03384
G1 X47.033 Y72.727 E4.04155
G1 X46.455 Y72.334 E4.0547
G1 X45.842 Y71.87 E4.06916
G1 X45.281 Y71.343 E4.08364
G1 X44.824 Y70.821 E4.09669
G1 X44.389 Y70.274 E4.10984
G1 X43.942 Y69.648 E4.12431
G1 X43.563 Y68.979 E4.13877
G1 X43.296 Y68.38 E4.15111
G1 X43.04 Y67.73 E4.16425
G1 X42.795 Y67 E4.17873
G1 X42.628 Y66.25 E4.19318
G1 X42.569 Y65.824 E4.20127
G1 X42.512 Y65.304 E4.21111
G1 X42.468 Y64.536 E4.22558
G1 X42.515 Y63.668 E4.24194
G1 X42.574 Y63.145 E4.25184
G1 X42.699 Y62.387 E4.26629
G1 X42.903 Y61.645 E4.28076
G1 X43.048 Y61.247 E4.28873
G1 X43.305 Y60.599 E4.30184
G1 X43.626 Y59.9 E4.31631
G1 X44.063 Y59.169 E4.33233
G1 X44.26 Y58.879 E4.33893
G1 X44.952 Y58.009 E4.35984
G1 X50.512 Y52.005 E4.51376
G1 X50.691 Y51.75 E4.51963
G1 X50.957 Y51.204 E4.53105
G1 X53.289 Y43.637 E4.68
G1 X53.576 Y42.863 E4.69552
G1 X53.785 Y42.383 E4.70537
G1 X54.129 Y41.695 E4.71984
G1 X54.764 Y40.749 E4.74127
G0 F3600 X55.078 Y40.997
G1 F1800 X55.511 Y40.449 E4.75441
G1 X56.005 Y39.888 E4.76847
G1 X56.557 Y39.383 E4.78254
G1 X57.06 Y39.005 E4.79438
G1 X57.638 Y38.611 E4.80754
G1 X58.278 Y38.223 E4.82162
G1 X59.248 Y37.795 E4.84156
G1 X59.743 Y37.62 E4.85144
G1 X60.46 Y37.409 E4.86549
G1 X61.303 Y37.263 E4.88159
G1 X61.825 Y37.205 E4.89147
G1 X62.572 Y37.162 E4.90554
G1 X63.386 Y37.206 E4.92088
G1 X63.907 Y37.265 E4.93074
G1 X64.644 Y37.389 E4.9448
G1 X65.44 Y37.617 E4.96037
G1 X65.935 Y37.791 E4.97024
G1 X66.627 Y38.077 E4.98433
G1 X67.555 Y38.61 E5.00446
G1 X68.132 Y39.003 E5.01759
G1 X68.726 Y39.456 E5.03164
G1 X69.27 Y39.97 E5.04572
G1 X69.68 Y40.443 E5.0575
G1 X70.113 Y40.99 E5.07062
G1 X70.545 Y41.601 E5.08469
G1 X70.932 Y42.301 E5.09974
G1 X71.084 Y42.617 E5.10634
G1 X71.463 Y43.581 E5.12582
G1 X73.892 Y51.425 E5.28028
G1 X74.074 Y51.817 E5.28841
G1 X74.246 Y52.082 E5.29436
G1 X80.069 Y58.435 E5.45646
G1 X80.544 Y59.013 E5.47054
G1 X80.955 Y59.638 E5.48461
G1 X81.297 Y60.304 E5.49869
G1 X81.653 Y61.099 E5.51507
G1 X81.922 Y61.797 E5.52915
G1 X82.114 Y62.52 E5.54322
G1 X82.213 Y63.12 E5.55466
G1 X82.276 Y63.641 E5.56453
G1 X82.326 Y64.387 E5.57859
G1 X82.291 Y65.188 E5.59367
G1 X82.238 Y65.71 E5.60354
G1 X82.123 Y66.449 E5.61761
G1 X81.897 Y67.268 E5.63359
G1 X81.727 Y67.765 E5.64347
G1 X81.448 Y68.459 E5.65754
G1 X80.914 Y69.404 E5.67796
G1 X80.525 Y69.983 E5.69108
G1 X80.076 Y70.58 E5.70513
G1 X79.565 Y71.127 E5.71921
G1 X79.07 Y71.559 E5.73157
G1 X78.5 Y72.012 E5.74527
G1 X77.891 Y72.446 E5.75934
G1 X77.238 Y72.812 E5.77342
G1 X76.427 Y73.15 E5.78994
G1 X75.615 Y73.43 E5.8061
G1 X74.896 Y73.635 E5.82016
G1 X74.159 Y73.763 E5.83424
G1 X73.323 Y73.812 E5.84999
G1 X72.627 Y73.811 E5.86308
G1 X71.88 Y73.77 E5.87715
G1 X71.087 Y73.637 E5.89228
G1 X63.076 Y71.817 E6.04681
G1 X62.647 Y71.78 E6.05491
G1 X62.175 Y71.804 E6.0638
G1 X61.738 Y71.881 E6.07215
G1 X53.939 Y73.656 E6.2226
G1 X53.202 Y73.783 E6.23667
G1 X52.456 Y73.831 E6.25073
G1 X51.874 Y73.812 E6.26168
G1 X51.178 Y73.761 E6.27481
G1 X50.436 Y73.667 E6.28888
G1 X49.397 Y73.394 E6.30909
G1 X48.901 Y73.222 E6.31896
G1 X48.208 Y72.939 E6.33304
G1 X47.258 Y72.397 E6.35362
G1 X46.68 Y72.004 E6.36677
G1 X46.085 Y71.551 E6.38083
G1 X45.541 Y71.037 E6.39491
G1 X45.137 Y70.572 E6.4065
G1 X44.702 Y70.025 E6.41964
G1 X44.269 Y69.415 E6.43372
G1 X43.902 Y68.763 E6.44779
G1 X43.668 Y68.233 E6.45869
G1 X43.412 Y67.583 E6.47183
G1 X43.175 Y66.873 E6.48591
G1 X42.967 Y65.781 E6.50682
G1 X42.91 Y65.261 E6.51666
G1 X42.868 Y64.514 E6.53073
G1 X42.912 Y63.713 E6.54582
G1 X42.971 Y63.19 E6.55572
G1 X43.095 Y62.452 E6.5698
G1 X43.42 Y61.394 E6.59062
G1 X43.677 Y60.746 E6.60373
G1 X43.99 Y60.067 E6.6178
G1 X44.394 Y59.394 E6.63256
G1 X44.591 Y59.104 E6.63916
G1 X45.245 Y58.281 E6.65893
G1 X50.824 Y52.257 E6.81338
G1 X51.035 Y51.956 E6.82029
G1 X51.333 Y51.343 E6.83311
G1 X53.672 Y43.755 E6.98247
G1 X53.943 Y43.022 E6.99717
G1 X54.152 Y42.542 E7.00702
G1 X54.487 Y41.874 E7.02108
G1 X55.078 Y40.997 E7.04097
G0 F3600 X55.391 Y41.245
G1 F1800 X55.824 Y40.697 E7.05411
G1 X56.305 Y40.153 E7.06777
G1 X56.843 Y39.665 E7.08143
G1 X57.286 Y39.336 E7.09181
G1 X57.864 Y38.942 E7.10497
G1 X58.485 Y38.566 E7.11862
G1 X59.381 Y38.172 E7.13704
G1 X59.876 Y37.997 E7.14691
G1 X60.573 Y37.793 E7.16057
G1 X61.347 Y37.66 E7.17535
G1 X61.869 Y37.602 E7.18523
G1 X62.594 Y37.562 E7.19888
G1 X63.341 Y37.604 E7.21296
G1 X63.862 Y37.663 E7.22282
G1 X64.578 Y37.784 E7.23648
G1 X65.308 Y37.994 E7.25077
G1 X65.803 Y38.168 E7.26064
G1 X66.474 Y38.447 E7.27431
G1 X67.329 Y38.94 E7.29287
G1 X67.906 Y39.333 E7.30601
G1 X68.483 Y39.774 E7.31967
G1 X69.008 Y40.276 E7.33333
G1 X69.366 Y40.692 E7.34365
G1 X69.799 Y41.239 E7.35678
G1 X70.218 Y41.832 E7.37043
G1 X70.572 Y42.474 E7.38423
G1 X70.724 Y42.79 E7.39082
G1 X71.081 Y43.699 E7.40919
G1 X73.519 Y51.574 E7.56426
G1 X73.721 Y52.007 E7.57325
G1 X73.932 Y52.332 E7.58054
G1 X79.774 Y58.706 E7.74318
G1 X80.234 Y59.267 E7.75682
G1 X80.63 Y59.876 E7.77049
G1 X80.932 Y60.468 E7.78299
G1 X81.288 Y61.263 E7.79938
G1 X81.548 Y61.941 E7.81303
G1 X81.731 Y62.644 E7.8267
G1 X81.816 Y63.168 E7.83668
G1 X81.879 Y63.689 E7.84656
G1 X81.927 Y64.414 E7.86022
G1 X81.893 Y65.148 E7.87405
G1 X81.84 Y65.67 E7.88392
G1 X81.727 Y66.387 E7.89757
G1 X81.519 Y67.139 E7.91225
G1 X81.349 Y67.636 E7.92213
G1 X81.076 Y68.309 E7.93579
G1 X80.582 Y69.181 E7.95464
G1 X80.193 Y69.76 E7.96776
G1 X79.756 Y70.339 E7.98141
G1 X79.257 Y70.867 E7.99507
G1 X78.821 Y71.246 E8.00594
G1 X78.251 Y71.699 E8.01963
G1 X77.659 Y72.119 E8.03329
G1 X77.024 Y72.471 E8.04694
G1 X76.297 Y72.771 E8.06174
G1 X75.485 Y73.051 E8.0779
G1 X74.786 Y73.25 E8.09157
G1 X74.07 Y73.371 E8.10523
G1 X73.324 Y73.412 E8.11928
G1 X72.628 Y73.411 E8.13237
G1 X71.902 Y73.37 E8.14605
G1 X71.175 Y73.247 E8.15992
G1 X63.14 Y71.422 E8.31491
G1 X62.654 Y71.379 E8.32409
G1 X62.126 Y71.407 E8.33404
G1 X61.663 Y71.488 E8.34288
G1 X53.851 Y73.266 E8.49358
G1 X53.135 Y73.388 E8.50725
G1 X52.409 Y73.431 E8.52093
G1 X51.904 Y73.413 E8.53043
G1 X51.208 Y73.362 E8.54356
G1 X50.487 Y73.269 E8.55723
G1 X49.528 Y73.016 E8.57589
G1 X49.032 Y72.844 E8.58577
G1 X48.359 Y72.568 E8.59945
G1 X47.483 Y72.066 E8.61844
G1 X46.905 Y71.673 E8.63159
G1 X46.328 Y71.232 E8.64525
G1 X45.802 Y70.73 E8.65893
G1 X45.45 Y70.323 E8.66905
G1 X45.015 Y69.776 E8.68219
G1 X44.595 Y69.183 E8.69586
G1 X44.243 Y68.548 E8.70952
G1 X44.04 Y68.087 E8.719
G1 X43.784 Y67.437 E8.73214
G1 X43.556 Y66.747 E8.74581
G1 X43.364 Y65.737 E8.76514
G1 X43.307 Y65.217 E8.77498
G1 X43.268 Y64.492 E8.78864
G1 X43.31 Y63.758 E8.80247
G1 X43.369 Y63.235 E8.81237
G1 X43.49 Y62.519 E8.82603
G1 X43.792 Y61.542 E8.84527
G1 X44.049 Y60.894 E8.85838
G1 X44.353 Y60.234 E8.87205
G1 X44.725 Y59.618 E8.88559
G1 X44.922 Y59.328 E8.89218
G1 X45.539 Y58.552 E8.91083
G1 X51.137 Y52.508 E9.06579
G1 X51.382 Y52.158 E9.07383
G1 X51.705 Y51.494 E9.08772
G1 X54.054 Y43.873 E9.23773
G1 X54.31 Y43.182 E9.25159
G1 X54.519 Y42.702 E9.26144
G1 X54.845 Y42.053 E9.2751
G1 X55.391 Y41.245 E9.29344
G0 F3600 X55.705 Y41.493
G1 F1800 X56.138 Y40.945 E9.30658
G1 X56.605 Y40.418 E9.31983
G1 X57.129 Y39.948 E9.33307
G1 X57.511 Y39.666 E9.342
G1 X58.089 Y39.272 E9.35516
G1 X58.692 Y38.909 E9.3684
G1 X59.514 Y38.55 E9.38527
G1 X60.009 Y38.375 E9.39515
G1 X60.685 Y38.178 E9.40839
G1 X61.391 Y38.058 E9.42186
G1 X61.913 Y38 E9.43174
G1 X62.616 Y37.962 E9.44498
G1 X63.296 Y38.001 E9.4578
G1 X63.817 Y38.06 E9.46766
G1 X64.511 Y38.179 E9.4809
G1 X65.175 Y38.372 E9.49391
G1 X65.67 Y38.546 E9.50378
G1 X66.32 Y38.817 E9.51703
G1 X67.104 Y39.271 E9.53407
G1 X67.681 Y39.664 E9.5472
G1 X68.24 Y40.092 E9.56045
G1 X68.746 Y40.582 E9.57369
G1 X69.052 Y40.94 E9.58255
G1 X69.485 Y41.487 E9.59568
G1 X69.89 Y42.063 E9.60892
G1 X70.211 Y42.647 E9.62146
G1 X70.363 Y42.963 E9.62805
G1 X70.699 Y43.817 E9.64532
G1 X73.144 Y51.716 E9.80086
G1 X73.374 Y52.208 E9.81107
G1 X73.612 Y52.575 E9.8193
G1 X79.479 Y58.976 E9.98263
G1 X79.924 Y59.521 E9.99587
G1 X80.305 Y60.113 E10.00911
G1 X80.567 Y60.631 E10.02003
G1 X80.923 Y61.426 E10.03641
G1 X81.173 Y62.084 E10.04966
G1 X81.348 Y62.766 E10.0629
G1 X81.419 Y63.216 E10.07147
G1 X81.482 Y63.737 E10.08134
G1 X81.527 Y64.439 E10.09457
G1 X81.495 Y65.107 E10.10715
G1 X81.442 Y65.629 E10.11702
G1 X81.332 Y66.325 E10.13028
G1 X81.14 Y67.01 E10.14366
G1 X80.97 Y67.507 E10.15354
G1 X80.705 Y68.159 E10.16678
G1 X80.25 Y68.958 E10.18407
G1 X79.861 Y69.537 E10.1972
G1 X79.436 Y70.098 E10.21043
G1 X78.95 Y70.607 E10.22367
G1 X78.573 Y70.933 E10.23305
G1 X78.003 Y71.386 E10.24674
G1 X77.427 Y71.792 E10.26
G1 X76.81 Y72.13 E10.27323
G1 X76.166 Y72.393 E10.28632
G1 X75.354 Y72.673 E10.30247
G1 X74.677 Y72.865 E10.31571
G1 X73.982 Y72.978 E10.32896
G1 X73.324 Y73.012 E10.34135
G1 X72.628 Y73.011 E10.35444
G1 X71.925 Y72.97 E10.36769
G1 X71.264 Y72.857 E10.3803
G1 X63.198 Y71.025 E10.53589
G1 X62.668 Y70.978 E10.5459
G1 X62.077 Y71.009 E10.55703
G1 X61.583 Y71.096 E10.56647
G1 X53.762 Y72.876 E10.71735
G1 X53.068 Y72.993 E10.73059
G1 X52.365 Y73.031 E10.74383
G1 X51.933 Y73.014 E10.75196
G1 X51.237 Y72.963 E10.76509
G1 X50.539 Y72.872 E10.77833
G1 X49.659 Y72.638 E10.79546
G1 X49.163 Y72.466 E10.80534
G1 X48.512 Y72.198 E10.81858
G1 X47.708 Y71.735 E10.83603
G1 X47.13 Y71.342 E10.84918
G1 X46.571 Y70.914 E10.86242
G1 X46.065 Y70.425 E10.87566
G1 X45.763 Y70.074 E10.88437
G1 X45.328 Y69.527 E10.89751
G1 X44.922 Y68.952 E10.91075
G1 X44.584 Y68.335 E10.92399
G1 X44.412 Y67.94 E10.93209
G1 X44.156 Y67.29 E10.94523
G1 X43.936 Y66.621 E10.95848
G1 X43.762 Y65.694 E10.97622
G1 X43.705 Y65.174 E10.98606
G1 X43.668 Y64.471 E10.9993
G1 X43.707 Y63.803 E11.01189
G1 X43.766 Y63.28 E11.02179
G1 X43.885 Y62.586 E11.03504
G1 X44.164 Y61.689 E11.05271
G1 X44.421 Y61.041 E11.06582
G1 X44.717 Y60.403 E11.07905
G1 X45.055 Y59.843 E11.09135
G1 X45.252 Y59.553 E11.09795
G1 X45.832 Y58.824 E11.11547
G1 X51.452 Y52.755 E11.27106
G1 X51.724 Y52.368 E11.27996
G1 X52.079 Y51.638 E11.29523
G1 X54.436 Y43.991 E11.44575
G1 X54.676 Y43.342 E11.45877
G1 X54.885 Y42.862 E11.46862
G1 X55.203 Y42.233 E11.48187
G1 X55.705 Y41.493 E11.49869
G0 F3600 X56.019 Y41.741
G1 F1800 X56.452 Y41.193 E11.51183
G1 X56.905 Y40.685 E11.52464
G1 X57.414 Y40.233 E11.53744
G1 X57.736 Y39.997 E11.54495
G1 X58.314 Y39.603 E11.55811
G1 X58.898 Y39.253 E11.57092
G1 X59.648 Y38.927 E11.5863
G1 X60.143 Y38.752 E11.59617
G1 X60.797 Y38.563 E11.60898
G1 X61.435 Y38.455 E11.62115
