;FLAVOR:RepRap
;TIME:711
;Filament used: 0.153629m
;Layer height: 0.1
;Generated with Cura_SteamEngine 2.5.0
M190 S60
M104 S200
M109 S200
G28 ;Home
G1 Z15.0 F6000 ;Move the platform down 15mm
;Prime the extruder
G92 E0
G1 F200 E3
G92 E0
;LAYER_COUNT:58
;LAYER:0
M107

G0 F1800 Z0.4
G0 F1800 X60.000000 Y60.000000
G0 F1800 Z0.3
G1 F1800 X100.000000 Y60.000000 E0.01314 ; Line 1, with angle 0.000000
G0 F1800 Z0.4
G0 F1800 X60.000000 Y60.000000
G0 F1800 Z0.3
G1 F1800 X99.993908 Y60.698096 E0.01314 ; Line 2, with angle 1.000000
G0 F1800 Z0.4
G0 F1800 X60.000000 Y60.000000
G0 F1800 Z0.3
G1 F1800 X99.975633 Y61.395980 E0.01314 ; Line 3, with angle 2.000000
G0 F1800 Z0.4
G0 F1800 X60.000000 Y60.000000
G0 F1800 Z0.3
G1 F1800 X99.945181 Y62.093438 E0.01314 ; Line 4, with angle 3.000000
G0 F1800 Z0.4
G0 F1800 X60.000000 Y60.000000
G0 F1800 Z0.3
G1 F1800 X99.902562 Y62.790259 E0.01314 ; Line 5, with angle 4.000000
G0 F1800 Z0.4
G0 F1800 X60.000000 Y60.000000
G0 F1800 Z0.3
G1 F1800 X99.847788 Y63.486230 E0.01314 ; Line 6, with angle 5.000000
G0 F1800 Z0.4
G0 F1800 X60.000000 Y60.000000
G0 F1800 Z0.3
G1 F1800 X99.780876 Y64.181139 E0.01314 ; Line 7, with angle 6.000000
G0 F1800 Z0.4
G0 F1800 X60.000000 Y60.000000
G0 F1800 Z0.3
G1 F1800 X99.701846 Y64.874774 E0.01314 ; Line 8, with angle 7.000000
G0 F1800 Z0.4
G0 F1800 X60.000000 Y60.000000
G0 F1800 Z0.3
G1 F1800 X99.610723 Y65.566924 E0.01314 ; Line 9, with angle 8.000000
G0 F1800 Z0.4
G0 F1800 X60.000000 Y60.000000
G0 F1800 Z0.3
G1 F1800 X99.507534 Y66.257379 E0.01314 ; Line 10, with angle 9.000000
G0 F1800 Z0.4
G0 F1800 X60.000000 Y60.000000
G0 F1800 Z0.3
G1 F1800 X99.392310 Y66.945927 E0.01314 ; Line 11, with angle 10.000000
G0 F1800 Z0.4
G0 F1800 X60.000000 Y60.000000
G0 F1800 Z0.3
G1 F1800 X99.265087 Y67.632360 E0.01314 ; Line 12, with angle 11.000000
G0 F1800 Z0.4
G0 F1800 X60.000000 Y60.000000
G0 F1800 Z0.3
G1 F1800 X99.125904 Y68.316468 E0.01314 ; Line 13, with angle 12.000000
G0 F1800 Z0.4
G0 F1800 X60.000000 Y60.000000
G0 F1800 Z0.3
G1 F1800 X98.974803 Y68.998042 E0.01314 ; Line 14, with angle 13.000000
G0 F1800 Z0.4
G0 F1800 X60.000000 Y60.000000
G0 F1800 Z0.3
G1 F1800 X98.811829 Y69.676876 E0.01314 ; Line 15, with angle 14.000000
G0 F1800 Z0.4
G0 F1800 X60.000000 Y60.000000
G0 F1800 Z0.3
G1 F1800 X98.637033 Y70.352762 E0.01314 ; Line 16, with angle 15.000000
G0 F1800 Z0.4
G0 F1800 X60.000000 Y60.000000
G0 F1800 Z0.3
G1 F1800 X98.450468 Y71.025494 E0.01314 ; Line 17, with angle 16.000000
G0 F1800 Z0.4
G0 F1800 X60.000000 Y60.000000
G0 F1800 Z0.3
G1 F1800 X98.252190 Y71.694868 E0.01314 ; Line 18, with angle 17.000000
G0 F1800 Z0.4
G0 F1800 X60.000000 Y60.000000
G0 F1800 Z0.3
G1 F1800 X98.042261 Y72.360680 E0.01314 ; Line 19, with angle 18.000000
G0 F1800 Z0.4
G0 F1800 X60.000000 Y60.000000
G0 F1800 Z0.3
G1 F1800 X97.820743 Y73.022726 E0.01314 ; Line 20, with angle 19.000000
G0 F1800 Z0.4
G0 F1800 X60.000000 Y60.000000
G0 F1800 Z0.3
G1 F1800 X97.587705 Y73.680806 E0.01314 ; Line 21, with angle 20.000000
G0 F1800 Z0.4
G0 F1800 X60.000000 Y60.000000
G0 F1800 Z0.3
G1 F1800 X97.343217 Y74.334718 E0.01314 ; Line 22, with angle 21.000000
G0 F1800 Z0.4
G0 F1800 X60.000000 Y60.000000
G0 F1800 Z0.3
G1 F1800 X97.087354 Y74.984264 E0.01314 ; Line 23, with angle 22.000000
G0 F1800 Z0.4
G0 F1800 X60.000000 Y60.000000
G0 F1800 Z0.3
G1 F1800 X96.820194 Y75.629245 E0.01314 ; Line 24, with angle 23.000000
G0 F1800 Z0.4
G0 F1800 X60.000000 Y60.000000
G0 F1800 Z0.3
G1 F1800 X96.541818 Y76.269466 E0.01314 ; Line 25, with angle 24.000000
G0 F1800 Z0.4
G0 F1800 X60.000000 Y60.000000
G0 F1800 Z0.3
G1 F1800 X96.252311 Y76.904730 E0.01314 ; Line 26, with angle 25.000000
G0 F1800 Z0.4
G0 F1800 X60.000000 Y60.000000
G0 F1800 Z0.3
G1 F1800 X95.951762 Y77.534846 E0.01314 ; Line 27, with angle 26.000000
G0 F1800 Z0.4
G0 F1800 X60.000000 Y60.000000
G0 F1800 Z0.3
G1 F1800 X95.640261 Y78.159620 E0.01314 ; Line 28, with angle 27.000000
G0 F1800 Z0.4
G0 F1800 X60.000000 Y60.000000
G0 F1800 Z0.3
G1 F1800 X95.317904 Y78.778863 E0.01314 ; Line 29, with angle 28.000000
G0 F1800 Z0.4
G0 F1800 X60.000000 Y60.000000
G0 F1800 Z0.3
G1 F1800 X94.984788 Y79.392385 E0.01314 ; Line 30, with angle 29.000000
G0 F1800 Z0.4
G0 F1800 X60.000000 Y60.000000
G0 F1800 Z0.3
G1 F1800 X94.641016 Y80.000000 E0.01314 ; Line 31, with angle 30.000000
G0 F1800 Z0.4
G0 F1800 X60.000000 Y60.000000
G0 F1800 Z0.3
G1 F1800 X94.286692 Y80.601523 E0.01314 ; Line 32, with angle 31.000000
G0 F1800 Z0.4
G0 F1800 X60.000000 Y60.000000
G0 F1800 Z0.3
G1 F1800 X93.921924 Y81.196771 E0.01314 ; Line 33, with angle 32.000000
G0 F1800 Z0.4
G0 F1800 X60.000000 Y60.000000
G0 F1800 Z0.3
G1 F1800 X93.546823 Y81.785561 E0.01314 ; Line 34, with angle 33.000000
G0 F1800 Z0.4
G0 F1800 X60.000000 Y60.000000
G0 F1800 Z0.3
G1 F1800 X93.161503 Y82.367716 E0.01314 ; Line 35, with angle 34.000000
G0 F1800 Z0.4
G0 F1800 X60.000000 Y60.000000
G0 F1800 Z0.3
G1 F1800 X92.766082 Y82.943057 E0.01314 ; Line 36, with angle 35.000000
G0 F1800 Z0.4
G0 F1800 X60.000000 Y60.000000
G0 F1800 Z0.3
G1 F1800 X92.360680 Y83.511410 E0.01314 ; Line 37, with angle 36.000000
G0 F1800 Z0.4
G0 F1800 X60.000000 Y60.000000
G0 F1800 Z0.3
G1 F1800 X91.945420 Y84.072601 E0.01314 ; Line 38, with angle 37.000000
G0 F1800 Z0.4
G0 F1800 X60.000000 Y60.000000
G0 F1800 Z0.3
G1 F1800 X91.520430 Y84.626459 E0.01314 ; Line 39, with angle 38.000000
G0 F1800 Z0.4
G0 F1800 X60.000000 Y60.000000
G0 F1800 Z0.3
G1 F1800 X91.085838 Y85.172816 E0.01314 ; Line 40, with angle 39.000000
G0 F1800 Z0.4
G0 F1800 X60.000000 Y60.000000
G0 F1800 Z0.3
G1 F1800 X90.641778 Y85.711504 E0.01314 ; Line 41, with angle 40.000000
G0 F1800 Z0.4
G0 F1800 X60.000000 Y60.000000
G0 F1800 Z0.3
G1 F1800 X90.188383 Y86.242361 E0.01314 ; Line 42, with angle 41.000000
G0 F1800 Z0.4
G0 F1800 X60.000000 Y60.000000
G0 F1800 Z0.3
G1 F1800 X89.725793 Y86.765224 E0.01314 ; Line 43, with angle 42.000000
G0 F1800 Z0.4
G0 F1800 X60.000000 Y60.000000
G0 F1800 Z0.3
G1 F1800 X89.254148 Y87.279934 E0.01314 ; Line 44, with angle 43.000000
G0 F1800 Z0.4
G0 F1800 X60.000000 Y60.000000
G0 F1800 Z0.3
G1 F1800 X88.773592 Y87.786335 E0.01314 ; Line 45, with angle 44.000000
G0 F1800 Z0.4
G0 F1800 X60.000000 Y60.000000
G0 F1800 Z0.3
G1 F1800 X88.284271 Y88.284271 E0.01314 ; Line 46, with angle 45.000000
G0 F1800 Z0.4
G0 F1800 X60.000000 Y60.000000
G0 F1800 Z0.3
G1 F1800 X87.786335 Y88.773592 E0.01314 ; Line 47, with angle 46.000000
G0 F1800 Z0.4
G0 F1800 X60.000000 Y60.000000
G0 F1800 Z0.3
G1 F1800 X87.279934 Y89.254148 E0.01314 ; Line 48, with angle 47.000000
G0 F1800 Z0.4
G0 F1800 X60.000000 Y60.000000
G0 F1800 Z0.3
G1 F1800 X86.765224 Y89.725793 E0.01314 ; Line 49, with angle 48.000000
G0 F1800 Z0.4
G0 F1800 X60.000000 Y60.000000
G0 F1800 Z0.3
G1 F1800 X86.242361 Y90.188383 E0.01314 ; Line 50, with angle 49.000000
G0 F1800 Z0.4
G0 F1800 X60.000000 Y60.000000
G0 F1800 Z0.3
G1 F1800 X85.711504 Y90.641778 E0.01314 ; Line 51, with angle 50.000000
G0 F1800 Z0.4
G0 F1800 X60.000000 Y60.000000
G0 F1800 Z0.3
G1 F1800 X85.172816 Y91.085838 E0.01314 ; Line 52, with angle 51.000000
G0 F1800 Z0.4
G0 F1800 X60.000000 Y60.000000
G0 F1800 Z0.3
G1 F1800 X84.626459 Y91.520430 E0.01314 ; Line 53, with angle 52.000000
G0 F1800 Z0.4
G0 F1800 X60.000000 Y60.000000
G0 F1800 Z0.3
G1 F1800 X84.072601 Y91.945420 E0.01314 ; Line 54, with angle 53.000000
G0 F1800 Z0.4
G0 F1800 X60.000000 Y60.000000
G0 F1800 Z0.3
G1 F1800 X83.511410 Y92.360680 E0.01314 ; Line 55, with angle 54.000000
G0 F1800 Z0.4
G0 F1800 X60.000000 Y60.000000
G0 F1800 Z0.3
G1 F1800 X82.943057 Y92.766082 E0.01314 ; Line 56, with angle 55.000000
G0 F1800 Z0.4
G0 F1800 X60.000000 Y60.000000
G0 F1800 Z0.3
G1 F1800 X82.367716 Y93.161503 E0.01314 ; Line 57, with angle 56.000000
G0 F1800 Z0.4
G0 F1800 X60.000000 Y60.000000
G0 F1800 Z0.3
G1 F1800 X81.785561 Y93.546823 E0.01314 ; Line 58, with angle 57.000000
G0 F1800 Z0.4
G0 F1800 X60.000000 Y60.000000
G0 F1800 Z0.3
G1 F1800 X81.196771 Y93.921924 E0.01314 ; Line 59, with angle 58.000000
G0 F1800 Z0.4
G0 F1800 X60.000000 Y60.000000
G0 F1800 Z0.3
G1 F1800 X80.601523 Y94.286692 E0.01314 ; Line 60, with angle 59.000000
G0 F1800 Z0.4
G0 F1800 X60.000000 Y60.000000
G0 F1800 Z0.3
G1 F1800 X80.000000 Y94.641016 E0.01314 ; Line 61, with angle 60.000000
G0 F1800 Z0.4
G0 F1800 X60.000000 Y60.000000
G0 F1800 Z0.3
G1 F1800 X79.392385 Y94.984788 E0.01314 ; Line 62, with angle 61.000000
G0 F1800 Z0.4
G0 F1800 X60.000000 Y60.000000
G0 F1800 Z0.3
G1 F1800 X78.778863 Y95.317904 E0.01314 ; Line 63, with angle 62.000000
G0 F1800 Z0.4
G0 F1800 X60.000000 Y60.000000
G0 F1800 Z0.3
G1 F1800 X78.159620 Y95.640261 E0.01314 ; Line 64, with angle 63.000000
G0 F1800 Z0.4
G0 F1800 X60.000000 Y60.000000
G0 F1800 Z0.3
G1 F1800 X77.534846 Y95.951762 E0.01314 ; Line 65, with angle 64.000000
G0 F1800 Z0.4
G0 F1800 X60.000000 Y60.000000
G0 F1800 Z0.3
G1 F1800 X76.904730 Y96.252311 E0.01314 ; Line 66, with angle 65.000000
G0 F1800 Z0.4
G0 F1800 X60.000000 Y60.000000
G0 F1800 Z0.3
G1 F1800 X76.269466 Y96.541818 E0.01314 ; Line 67, with angle 66.000000
G0 F1800 Z0.4
G0 F1800 X60.000000 Y60.000000
G0 F1800 Z0.3
G1 F1800 X75.629245 Y96.820194 E0.01314 ; Line 68, with angle 67.000000
G0 F1800 Z0.4
G0 F1800 X60.000000 Y60.000000
G0 F1800 Z0.3
G1 F1800 X74.984264 Y97.087354 E0.01314 ; Line 69, with angle 68.000000
G0 F1800 Z0.4
G0 F1800 X60.000000 Y60.000000
G0 F1800 Z0.3
G1 F1800 X74.334718 Y97.343217 E0.01314 ; Line 70, with angle 69.000000
G0 F1800 Z0.4
G0 F1800 X60.000000 Y60.000000
G0 F1800 Z0.3
G1 F1800 X73.680806 Y97.587705 E0.01314 ; Line 71, with angle 70.000000
G0 F1800 Z0.4
G0 F1800 X60.000000 Y60.000000
G0 F1800 Z0.3
G1 F1800 X73.022726 Y97.820743 E0.01314 ; Line 72, with angle 71.000000
G0 F1800 Z0.4
G0 F1800 X60.000000 Y60.000000
G0 F1800 Z0.3
G1 F1800 X72.360680 Y98.042261 E0.01314 ; Line 73, with angle 72.000000
G0 F1800 Z0.4
G0 F1800 X60.000000 Y60.000000
G0 F1800 Z0.3
G1 F1800 X71.694868 Y98.252190 E0.01314 ; Line 74, with angle 73.000000
G0 F1800 Z0.4
G0 F1800 X60.000000 Y60.000000
G0 F1800 Z0.3
G1 F1800 X71.025494 Y98.450468 E0.01314 ; Line 75, with angle 74.000000
G0 F1800 Z0.4
G0 F1800 X60.000000 Y60.000000
G0 F1800 Z0.3
G1 F1800 X70.352762 Y98.637033 E0.01314 ; Line 76, with angle 75.000000
G0 F1800 Z0.4
G0 F1800 X60.000000 Y60.000000
G0 F1800 Z0.3
G1 F1800 X69.676876 Y98.811829 E0.01314 ; Line 77, with angle 76.000000
G0 F1800 Z0.4
G0 F1800 X60.000000 Y60.000000
G0 F1800 Z0.3
G1 F1800 X68.998042 Y98.974803 E0.01314 ; Line 78, with angle 77.000000
G0 F1800 Z0.4
G0 F1800 X60.000000 Y60.000000
G0 F1800 Z0.3
G1 F1800 X68.316468 Y99.125904 E0.01314 ; Line 79, with angle 78.000000
G0 F1800 Z0.4
G0 F1800 X60.000000 Y60.000000
G0 F1800 Z0.3
G1 F1800 X67.632360 Y99.265087 E0.01314 ; Line 80, with angle 79.000000
G0 F1800 Z0.4
G0 F1800 X60.000000 Y60.000000
G0 F1800 Z0.3
G1 F1800 X66.945927 Y99.392310 E0.01314 ; Line 81, with angle 80.000000
G0 F1800 Z0.4
G0 F1800 X60.000000 Y60.000000
G0 F1800 Z0.3
G1 F1800 X66.257379 Y99.507534 E0.01314 ; Line 82, with angle 81.000000
G0 F1800 Z0.4
G0 F1800 X60.000000 Y60.000000
G0 F1800 Z0.3
G1 F1800 X65.566924 Y99.610723 E0.01314 ; Line 83, with angle 82.000000
G0 F1800 Z0.4
G0 F1800 X60.000000 Y60.000000
G0 F1800 Z0.3
G1 F1800 X64.874774 Y99.701846 E0.01314 ; Line 84, with angle 83.000000
G0 F1800 Z0.4
G0 F1800 X60.000000 Y60.000000
G0 F1800 Z0.3
G1 F1800 X64.181139 Y99.780876 E0.01314 ; Line 85, with angle 84.000000
G0 F1800 Z0.4
G0 F1800 X60.000000 Y60.000000
G0 F1800 Z0.3
G1 F1800 X63.486230 Y99.847788 E0.01314 ; Line 86, with angle 85.000000
G0 F1800 Z0.4
G0 F1800 X60.000000 Y60.000000
G0 F1800 Z0.3
G1 F1800 X62.790259 Y99.902562 E0.01314 ; Line 87, with angle 86.000000
G0 F1800 Z0.4
G0 F1800 X60.000000 Y60.000000
G0 F1800 Z0.3
G1 F1800 X62.093438 Y99.945181 E0.01314 ; Line 88, with angle 87.000000
G0 F1800 Z0.4
G0 F1800 X60.000000 Y60.000000
G0 F1800 Z0.3
G1 F1800 X61.395980 Y99.975633 E0.01314 ; Line 89, with angle 88.000000
G0 F1800 Z0.4
G0 F1800 X60.000000 Y60.000000
G0 F1800 Z0.3
G1 F1800 X60.698096 Y99.993908 E0.01314 ; Line 90, with angle 89.000000
G0 F1800 Z0.4
G0 F1800 X60.000000 Y60.000000
G0 F1800 Z0.3
G1 F1800 X60.000000 Y100.000000 E0.01314 ; Line 91, with angle 90.000000
G0 F1800 Z0.4
G0 F1800 X60.000000 Y60.000000
G0 F1800 Z0.3
G1 F1800 X59.301904 Y99.993908 E0.01314 ; Line 92, with angle 91.000000
G0 F1800 Z0.4
G0 F1800 X60.000000 Y60.000000
G0 F1800 Z0.3
G1 F1800 X58.604020 Y99.975633 E0.01314 ; Line 93, with angle 92.000000
G0 F1800 Z0.4
G0 F1800 X60.000000 Y60.000000
G0 F1800 Z0.3
G1 F1800 X57.906562 Y99.945181 E0.01314 ; Line 94, with angle 93.000000
G0 F1800 Z0.4
G0 F1800 X60.000000 Y60.000000
G0 F1800 Z0.3
G1 F1800 X57.209741 Y99.902562 E0.01314 ; Line 95, with angle 94.000000
G0 F1800 Z0.4
G0 F1800 X60.000000 Y60.000000
G0 F1800 Z0.3
G1 F1800 X56.513770 Y99.847788 E0.01314 ; Line 96, with angle 95.000000
G0 F1800 Z0.4
G0 F1800 X60.000000 Y60.000000
G0 F1800 Z0.3
G1 F1800 X55.818861 Y99.780876 E0.01314 ; Line 97, with angle 96.000000
G0 F1800 Z0.4
G0 F1800 X60.000000 Y60.000000
G0 F1800 Z0.3
G1 F1800 X55.125226 Y99.701846 E0.01314 ; Line 98, with angle 97.000000
G0 F1800 Z0.4
G0 F1800 X60.000000 Y60.000000
G0 F1800 Z0.3
G1 F1800 X54.433076 Y99.610723 E0.01314 ; Line 99, with angle 98.000000
G0 F1800 Z0.4
G0 F1800 X60.000000 Y60.000000
G0 F1800 Z0.3
G1 F1800 X53.742621 Y99.507534 E0.01314 ; Line 100, with angle 99.000000
G0 F1800 Z0.4
G0 F1800 X60.000000 Y60.000000
G0 F1800 Z0.3
G1 F1800 X53.054073 Y99.392310 E0.01314 ; Line 101, with angle 100.000000
G0 F1800 Z0.4
G0 F1800 X60.000000 Y60.000000
G0 F1800 Z0.3
G1 F1800 X52.367640 Y99.265087 E0.01314 ; Line 102, with angle 101.000000
G0 F1800 Z0.4
G0 F1800 X60.000000 Y60.000000
G0 F1800 Z0.3
G1 F1800 X51.683532 Y99.125904 E0.01314 ; Line 103, with angle 102.000000
G0 F1800 Z0.4
G0 F1800 X60.000000 Y60.000000
G0 F1800 Z0.3
G1 F1800 X51.001958 Y98.974803 E0.01314 ; Line 104, with angle 103.000000
G0 F1800 Z0.4
G0 F1800 X60.000000 Y60.000000
G0 F1800 Z0.3
G1 F1800 X50.323124 Y98.811829 E0.01314 ; Line 105, with angle 104.000000
G0 F1800 Z0.4
G0 F1800 X60.000000 Y60.000000
G0 F1800 Z0.3
G1 F1800 X49.647238 Y98.637033 E0.01314 ; Line 106, with angle 105.000000
G0 F1800 Z0.4
G0 F1800 X60.000000 Y60.000000
G0 F1800 Z0.3
G1 F1800 X48.974506 Y98.450468 E0.01314 ; Line 107, with angle 106.000000
G0 F1800 Z0.4
G0 F1800 X60.000000 Y60.000000
G0 F1800 Z0.3
G1 F1800 X48.305132 Y98.252190 E0.01314 ; Line 108, with angle 107.000000
G0 F1800 Z0.4
G0 F1800 X60.000000 Y60.000000
G0 F1800 Z0.3
G1 F1800 X47.639320 Y98.042261 E0.01314 ; Line 109, with angle 108.000000
G0 F1800 Z0.4
G0 F1800 X60.000000 Y60.000000
G0 F1800 Z0.3
G1 F1800 X46.977274 Y97.820743 E0.01314 ; Line 110, with angle 109.000000
G0 F1800 Z0.4
G0 F1800 X60.000000 Y60.000000
G0 F1800 Z0.3
G1 F1800 X46.319194 Y97.587705 E0.01314 ; Line 111, with angle 110.000000
G0 F1800 Z0.4
G0 F1800 X60.000000 Y60.000000
G0 F1800 Z0.3
G1 F1800 X45.665282 Y97.343217 E0.01314 ; Line 112, with angle 111.000000
G0 F1800 Z0.4
G0 F1800 X60.000000 Y60.000000
G0 F1800 Z0.3
G1 F1800 X45.015736 Y97.087354 E0.01314 ; Line 113, with angle 112.000000
G0 F1800 Z0.4
G0 F1800 X60.000000 Y60.000000
G0 F1800 Z0.3
G1 F1800 X44.370755 Y96.820194 E0.01314 ; Line 114, with angle 113.000000
G0 F1800 Z0.4
G0 F1800 X60.000000 Y60.000000
G0 F1800 Z0.3
G1 F1800 X43.730534 Y96.541818 E0.01314 ; Line 115, with angle 114.000000
G0 F1800 Z0.4
G0 F1800 X60.000000 Y60.000000
G0 F1800 Z0.3
G1 F1800 X43.095270 Y96.252311 E0.01314 ; Line 116, with angle 115.000000
G0 F1800 Z0.4
G0 F1800 X60.000000 Y60.000000
G0 F1800 Z0.3
G1 F1800 X42.465154 Y95.951762 E0.01314 ; Line 117, with angle 116.000000
G0 F1800 Z0.4
G0 F1800 X60.000000 Y60.000000
G0 F1800 Z0.3
G1 F1800 X41.840380 Y95.640261 E0.01314 ; Line 118, with angle 117.000000
G0 F1800 Z0.4
G0 F1800 X60.000000 Y60.000000
G0 F1800 Z0.3
G1 F1800 X41.221137 Y95.317904 E0.01314 ; Line 119, with angle 118.000000
G0 F1800 Z0.4
G0 F1800 X60.000000 Y60.000000
G0 F1800 Z0.3
