;FLAVOR:RepRap
;TIME:711
;Filament used: 0.153629m
;Layer height: 0.1
;Generated with Cura_SteamEngine 2.5.0
M190 S60
M104 S200
M109 S200
G28 ;Home
G1 Z15.0 F6000 ;Move the platform down 15mm
;Prime the extruder
G92 E0
G1 F200 E3
G92 E0
;LAYER_COUNT:58
;LAYER:0
M107

G0 F3600 Z0.4
G0 F3600 X60.000000 Y60.000000
G0 F3600 Z0.3
G4 P3000
G1 F1800 X100.000000 Y60.000000 E0.01314 ; Line 1, with angle 0.000000
G4 P3000
G0 F3600 Z0.4
G0 F3600 X60.000000 Y60.000000
G0 F3600 Z0.3
G4 P3000
G1 F1800 X99.392310 Y66.945927 E0.01314 ; Line 2, with angle 10.000000
G4 P3000
G0 F3600 Z0.4
G0 F3600 X60.000000 Y60.000000
G0 F3600 Z0.3
G4 P3000
G1 F1800 X97.587705 Y73.680806 E0.01314 ; Line 3, with angle 20.000000
G4 P3000
G0 F3600 Z0.4
G0 F3600 X60.000000 Y60.000000
G0 F3600 Z0.3
G4 P3000
G1 F1800 X94.641016 Y80.000000 E0.01314 ; Line 4, with angle 30.000000
G4 P3000
G0 F3600 Z0.4
G0 F3600 X60.000000 Y60.000000
G0 F3600 Z0.3
G4 P3000
G1 F1800 X90.641778 Y85.711504 E0.01314 ; Line 5, with angle 40.000000
G4 P3000
G0 F3600 Z0.4
G0 F3600 X60.000000 Y60.000000
G0 F3600 Z0.3
G4 P3000
G1 F1800 X85.711504 Y90.641778 E0.01314 ; Line 6, with angle 50.000000
G4 P3000
G0 F3600 Z0.4
G0 F3600 X60.000000 Y60.000000
G0 F3600 Z0.3
G4 P3000
G1 F1800 X80.000000 Y94.641016 E0.01314 ; Line 7, with angle 60.000000
G4 P3000
G0 F3600 Z0.4
G0 F3600 X60.000000 Y60.000000
G0 F3600 Z0.3
G4 P3000
G1 F1800 X73.680806 Y97.587705 E0.01314 ; Line 8, with angle 70.000000
G4 P3000
G0 F3600 Z0.4
G0 F3600 X60.000000 Y60.000000
G0 F3600 Z0.3
G4 P3000
G1 F1800 X66.945927 Y99.392310 E0.01314 ; Line 9, with angle 80.000000
G4 P3000
G0 F3600 Z0.4
G0 F3600 X60.000000 Y60.000000
G0 F3600 Z0.3
G4 P3000
G1 F1800 X60.000000 Y100.000000 E0.01314 ; Line 10, with angle 90.000000
G4 P3000
G0 F3600 Z0.4
G0 F3600 X60.000000 Y60.000000
G0 F3600 Z0.3
G4 P3000
G1 F1800 X53.054073 Y99.392310 E0.01314 ; Line 11, with angle 100.000000
G4 P3000
G0 F3600 Z0.4
G0 F3600 X60.000000 Y60.000000
G0 F3600 Z0.3
G4 P3000
G1 F1800 X46.319194 Y97.587705 E0.01314 ; Line 12, with angle 110.000000
G4 P3000
G0 F3600 Z0.4
G0 F3600 X60.000000 Y60.000000
G0 F3600 Z0.3
G4 P3000
G1 F1800 X40.000000 Y94.641016 E0.01314 ; Line 13, with angle 120.000000
G4 P3000
G0 F3600 Z0.4
G0 F3600 X60.000000 Y60.000000
G0 F3600 Z0.3
G4 P3000
G1 F1800 X34.288496 Y90.641778 E0.01314 ; Line 14, with angle 130.000000
G4 P3000
G0 F3600 Z0.4
G0 F3600 X60.000000 Y60.000000
G0 F3600 Z0.3
G4 P3000
G1 F1800 X29.358222 Y85.711504 E0.01314 ; Line 15, with angle 140.000000
G4 P3000
G0 F3600 Z0.4
G0 F3600 X60.000000 Y60.000000
G0 F3600 Z0.3
G4 P3000
G1 F1800 X25.358984 Y80.000000 E0.01314 ; Line 16, with angle 150.000000
G4 P3000
G0 F3600 Z0.4
G0 F3600 X60.000000 Y60.000000
G0 F3600 Z0.3
G4 P3000
G1 F1800 X22.412295 Y73.680806 E0.01314 ; Line 17, with angle 160.000000
G4 P3000
G0 F3600 Z0.4
G0 F3600 X60.000000 Y60.000000
G0 F3600 Z0.3
G4 P3000
G1 F1800 X20.607690 Y66.945927 E0.01314 ; Line 18, with angle 170.000000
G4 P3000
G0 F3600 Z0.4
G0 F3600 X60.000000 Y60.000000
G0 F3600 Z0.3
G4 P3000
G1 F1800 X20.000000 Y60.000000 E0.01314 ; Line 19, with angle 180.000000
G4 P3000
G0 F3600 Z0.4
G0 F3600 X60.000000 Y60.000000
G0 F3600 Z0.3
G4 P3000
G1 F1800 X20.607690 Y53.054073 E0.01314 ; Line 20, with angle 190.000000
G4 P3000
G0 F3600 Z0.4
G0 F3600 X60.000000 Y60.000000
G0 F3600 Z0.3
G4 P3000
G1 F1800 X22.412295 Y46.319194 E0.01314 ; Line 21, with angle 200.000000
G4 P3000
G0 F3600 Z0.4
G0 F3600 X60.000000 Y60.000000
G0 F3600 Z0.3
G4 P3000
G1 F1800 X25.358984 Y40.000000 E0.01314 ; Line 22, with angle 210.000000
G4 P3000
G0 F3600 Z0.4
G0 F3600 X60.000000 Y60.000000
G0 F3600 Z0.3
G4 P3000
G1 F1800 X29.358222 Y34.288496 E0.01314 ; Line 23, with angle 220.000000
G4 P3000
G0 F3600 Z0.4
G0 F3600 X60.000000 Y60.000000
G0 F3600 Z0.3
G4 P3000
G1 F1800 X34.288496 Y29.358222 E0.01314 ; Line 24, with angle 230.000000
G4 P3000
G0 F3600 Z0.4
G0 F3600 X60.000000 Y60.000000
G0 F3600 Z0.3
G4 P3000
G1 F1800 X40.000000 Y25.358984 E0.01314 ; Line 25, with angle 240.000000
G4 P3000
G0 F3600 Z0.4
G0 F3600 X60.000000 Y60.000000
G0 F3600 Z0.3
G4 P3000
G1 F1800 X46.319194 Y22.412295 E0.01314 ; Line 26, with angle 250.000000
G4 P3000
G0 F3600 Z0.4
G0 F3600 X60.000000 Y60.000000
G0 F3600 Z0.3
G4 P3000
G1 F1800 X53.054073 Y20.607690 E0.01314 ; Line 27, with angle 260.000000
G4 P3000
G0 F3600 Z0.4
G0 F3600 X60.000000 Y60.000000
G0 F3600 Z0.3
G4 P3000
G1 F1800 X60.000000 Y20.000000 E0.01314 ; Line 28, with angle 270.000000
G4 P3000
G0 F3600 Z0.4
G0 F3600 X60.000000 Y60.000000
G0 F3600 Z0.3
G4 P3000
G1 F1800 X66.945927 Y20.607690 E0.01314 ; Line 29, with angle 280.000000
G4 P3000
G0 F3600 Z0.4
G0 F3600 X60.000000 Y60.000000
G0 F3600 Z0.3
G4 P3000
G1 F1800 X73.680806 Y22.412295 E0.01314 ; Line 30, with angle 290.000000
G4 P3000
G0 F3600 Z0.4
G0 F3600 X60.000000 Y60.000000
G0 F3600 Z0.3
G4 P3000
G1 F1800 X80.000000 Y25.358984 E0.01314 ; Line 31, with angle 300.000000
G4 P3000
G0 F3600 Z0.4
G0 F3600 X60.000000 Y60.000000
G0 F3600 Z0.3
G4 P3000
G1 F1800 X85.711504 Y29.358222 E0.01314 ; Line 32, with angle 310.000000
G4 P3000
G0 F3600 Z0.4
G0 F3600 X60.000000 Y60.000000
G0 F3600 Z0.3
G4 P3000
G1 F1800 X90.641778 Y34.288496 E0.01314 ; Line 33, with angle 320.000000
G4 P3000
G0 F3600 Z0.4
G0 F3600 X60.000000 Y60.000000
G0 F3600 Z0.3
G4 P3000
G1 F1800 X94.641016 Y40.000000 E0.01314 ; Line 34, with angle 330.000000
G4 P3000
G0 F3600 Z0.4
G0 F3600 X60.000000 Y60.000000
G0 F3600 Z0.3
G4 P3000
G1 F1800 X97.587705 Y46.319194 E0.01314 ; Line 35, with angle 340.000000
G4 P3000
G0 F3600 Z0.4
G0 F3600 X60.000000 Y60.000000
G0 F3600 Z0.3
G4 P3000
G1 F1800 X99.392310 Y53.054073 E0.01314 ; Line 36, with angle 350.000000
G4 P3000

;Finish sequence
M107
M104 S0
M140 S0
;Retract the filament
G92 E1
G1 E-1 F300
G28 X0 Y0
M84
M104 S0
;End of Gcode
